X:11054
T:Walzer  CF oct. (wz08962)
S: Hanny Christen. Bd.X Unterwalden II. Glarus.
S: T\"anze aus Kerns. S.6-61. S.34 (wz08962) orig. C.F-Dur
S: \"Uberliefert durch Josef P\"untener (1870-1950) und Isidor Bucher
%%MIDI program 21
R:waltz
M:3/4
L:1/4
O:Switzerland
K:C%%MIDI gchordon
c>B |: "F"A3 | "G7"AFB, | "C"C2E | zC/2E/2 G/2c/2 | "G7"B2F | zB,/2D/2 F/2B/2 |1 "C"c2E | zc>B :|2 "C"c>cc | c>AG || "C"E2c | 
GA>G | "G7"F2B | G>AG | F2B | G>AG | "C"E2c | G>AG | E2c | G>AG | "G7"F2B | G>AG | f3 | fAB | 
"C"c>cc | cFG |: [K:F] "F"A/2A/2 A/2A/2 A | zAB | c/2c/2 c/2c/2 c | zdc | "C7"B/2B/2 B/2B/2B | zcB |1 "F"A/2A/2 A/2A/2 A | zFG :|2 "F"A>AA | Azz |] 
% wz08962

